!!!COM: Mozart, Wolfgang Amadeus
!!!OTL: Musikalische Würfelspiele, Kontre-Tänze
!!!SCA: K<sup>6</sup> Anh. C30.01 (K<sup>3</sup> Anh. 294d)
**kern	**kern
*staff2	*staff2
*clefF4	*clefG2
*M2/4	*M2/4
*MM110	*MM110
*>[A,A1,A,A2,B]	*>[A,A1,A,A2,B]
*>norep[A,A2,B]	*>norep[A,A2,B]
*>A	*>A
=99	=99
16C	8g
16G	.
16E	4cc
16G	.
16C	.
16G	.
16E	8ee
16G	.
=68	=68
4C	8gg
.	16gg
.	16ee
4r	8cc
.	16cc
.	16ee
=40	=40
8G	16ff
.	16ee
8GG	16dd
.	16cc
8GG	16b
.	16cc
8GG	16dd
.	16b
=37	=37
16C	8cc
16c	.
16B	8ee
16c	.
4C	4g
=149	=149
4D	8d
.	4dd
4r	.
.	16ff#
.	16aa
=27	=27
4BB 4G	16aaQ
.	16gg
.	16ff#
.	16gg
4BB	16dd
.	16gg
.	16dd
.	16b
=137	=137
4C	8ee
.	8ccc
4D	16bb
.	16aa
.	16gg
.	16ff#
=44	=44
*>A1	*>A1
4GG	4g 4b 4gg
16G	4r
16F	.
16E	.
16D	.
=44:|!	=44:|!
*>A2	*>A2
4GG	4g 4b 4gg
16GG	4r
16AA	.
16BB	.
16C#	.
=93||	=93||
*>B	*>B
16D	4dd
16F#	.
16A	.
16F#	.
16C	8aa
16F#	.
16A	8ff#
16C	.
=91	=91
16BB	4gg
16D	.
16G	.
16D	.
16BB	8bb
16GG	.
16AA	8r
16BB	.
=26	=26
4C	8ee
.	8cc
4C	8gg
.	8ee
=46	=46
16G	8dd
16GG	.
16BB	8b
16D	.
16G	4g
16F	.
16E	.
16D	.
=169	=169
4C	16cc
.	16b
.	16cc
.	16dd
16C	8ee
16E	.
16G	8ee
16E	.
=80	=80
4C	8cc
.	8ee
4r	8ee
.	8ee
=96	=96
16G	8dd
16D	.
16BB	8dd
16GG	.
16G	8b
16D	.
16BB	8b
16GG	.
=65	=65
4C	8cc
.	8cc
4CC	4cc
==	==
*-	*-
